; generated by PrusaSlicer 2.9.0 on 2025-03-08 at 22:11:54 UTC


;
;
; 

; external perimeters extrusion width = 0.45mm
; perimeters extrusion width = 0.45mm
; infill extrusion width = 0.45mm
; solid infill extrusion width = 0.45mm
; top infill extrusion width = 0.40mm
; support material extrusion width = 0.35mm
; first layer extrusion width = 0.42mm

; external perimeters extrusion width = 0.45mm
; perimeters extrusion width = 0.45mm
; infill extrusion width = 0.45mm
; solid infill extrusion width = 0.45mm
; top infill extrusion width = 0.40mm
; support material extrusion width = 0.35mm
; first layer extrusion width = 0.42mm

; external perimeters extrusion width = 0.45mm
; perimeters extrusion width = 0.45mm
; infill extrusion width = 0.45mm
; solid infill extrusion width = 0.45mm
; top infill extrusion width = 0.40mm
; support material extrusion width = 0.35mm
; first layer extrusion width = 0.42mm

; external perimeters extrusion width = 0.45mm
; perimeters extrusion width = 0.45mm
; infill extrusion width = 0.45mm
; solid infill extrusion width = 0.45mm
; top infill extrusion width = 0.40mm
; support material extrusion width = 0.35mm
; first layer extrusion width = 0.42mm

; external perimeters extrusion width = 0.45mm
; perimeters extrusion width = 0.45mm
; infill extrusion width = 0.45mm
; solid infill extrusion width = 0.45mm
; top infill extrusion width = 0.40mm
; support material extrusion width = 0.35mm
; first layer extrusion width = 0.42mm

; external perimeters extrusion width = 0.45mm
; perimeters extrusion width = 0.45mm
; infill extrusion width = 0.45mm
; solid infill extrusion width = 0.45mm
; top infill extrusion width = 0.40mm
; support material extrusion width = 0.35mm
; first layer extrusion width = 0.42mm

M73 P0 R99
M73 Q0 S100
M201 X1000 Y1000 Z200 E5000 ; sets maximum accelerations, mm/sec^2
M203 X200 Y200 Z12 E120 ; sets maximum feedrates, mm / sec
M204 S1250 T1250 ; sets acceleration (S) and retract acceleration (R), mm/sec^2
M205 X8.00 Y8.00 Z0.40 E4.50 ; sets the jerk limits, mm/sec
M205 S0 T0 ; sets the minimum extruding and travel feed rate, mm/sec

; printing object danger doughnut - Motor bracket id:0 copy 0
; stop printing object danger doughnut - Motor bracket id:0 copy 0
; printing object danger doughnut - wheel hub (1) id:4 copy 0
; stop printing object danger doughnut - wheel hub (1) id:4 copy 0
; printing object danger doughnut - LED cover id:1 copy 0
; stop printing object danger doughnut - LED cover id:1 copy 0
; printing object danger doughnut - battery cover id:2 copy 0
; stop printing object danger doughnut - battery cover id:2 copy 0
; printing object danger doughnut - Motor bracket id:3 copy 0
; stop printing object danger doughnut - Motor bracket id:3 copy 0
; printing object danger doughnut - wheel hub (1) id:5 copy 0
; stop printing object danger doughnut - wheel hub (1) id:5 copy 0

;TYPE:Custom
M862.3 P "MK3S" ; printer model check
M862.1 P0.4 ; nozzle diameter check
M115 U3.14.0 ; tell printer latest fw version
G90 ; use absolute coordinates
M83 ; extruder relative mode
M104 S215 ; set extruder temp
M140 S60 ; set bed temp
M190 S60 ; wait for bed temp
M109 S215 ; wait for extruder temp
G28 W ; home all without mesh bed level
G80 X66.5099 Y46.3512 W142.49 H147.066 ; mesh bed levelling

G1 Z0.2 F720
G1 Y-3 F1000 ; go outside print area
G92 E0
G1 X60 E9 F1000 ; intro line
G1 X100 E12.5 F1000 ; intro line
M73 Q0 S99

G92 E0
M221 S95

; Don't change E values below. Excessive value can damage the printer.
M907 E430 ; set extruder motor current
G21 ; set units to millimeters
G90 ; use absolute coordinates
M83 ; use relative distances for extrusion

M900 K0.05 ; Filament gcode LA 1.5
M900 K30 ; Filament gcode LA 1.0




M107
;LAYER_CHANGE
;Z:0.2
;HEIGHT:0.2
G1 E-.8 F2100
G1 Z.6 F720
G1 X92.297 Y48.982 F10800
G1 Z.2 F720
G1 E.8 F2100
M204 S800
;TYPE:Skirt/Brim
;WIDTH:0.42
G1 F1200
G1 X92.822 Y48.072 E.03294
G1 X93.391 Y47.477 E.02581
G1 X94.234 Y46.93 E.03151
G1 X95.171 Y46.616 E.03098
G1 X95.939 Y46.54 E.0242
G1 X105.054 Y46.543 E.28579
G1 X164.251 Y54.395 E1.87234
G1 X165.986 Y54.846 E.05621
G1 X167.236 Y55.295 E.04164
G1 X168.861 Y56.052 E.05621
G1 X170.008 Y56.719 E.0416
G1 X171.47 Y57.757 E.05622
G1 X172.496 Y58.638 E.0424
G1 X173.781 Y59.965 E.05792
G1 X174.884 Y61.378 E.0562
G1 X175.872 Y62.968 E.05869
G1 X176.707 Y64.717 E.06077
G1 X208.462 Y144.677 E2.69756
G1 X208.751 Y145.669 E.0324
G1 X208.811 Y146.485 E.02565
G1 X208.758 Y147.095 E.0192
G1 X208.557 Y147.889 E.02568
G1 X208.303 Y148.469 E.01985
G1 X197.476 Y170.081 E.75791
G1 X196.57 Y171.406 E.05033
G1 X195.48 Y172.385 E.04594
G1 X194.394 Y173.01 E.03929
G1 X161.854 Y187.531 E1.11725
G1 X139.136 Y193.079 E.73324
G1 X137.68 Y193.229 E.04589
G1 X136.374 Y193.079 E.04122
G1 X113.671 Y187.536 E.73275
G1 X81.039 Y172.973 E1.12042
G1 X79.68 Y172.119 E.05033
G1 X79.04 Y171.517 E.02755
G1 X78.488 Y170.833 E.02756
G1 X78.001 Y170.017 E.0298
G1 X67.108 Y148.268 E.76267
G1 X66.89 Y147.697 E.01916
G1 X66.725 Y146.895 E.02567
G1 X66.7 Y146.278 E.01936
G1 X66.798 Y145.465 E.02568
G1 X89.283 Y57.718 E2.84014
G1 X92.278 Y49.039 E.28787
M73 P0 R98
M204 S1000
;WIPE_START
G1 F8640
G1 X92.297 Y48.982 E-.01387
G1 X92.822 Y48.072 E-.24258
G1 X93.391 Y47.477 E-.1901
G1 X94.234 Y46.93 E-.23204
G1 X94.733 Y46.763 E-.12141
;WIPE_END
G1 Z.6 F720
; printing object danger doughnut - battery cover id:2 copy 0
G1 X138.385 Y183.851 F10800
G1 Z.2 F720
G1 E.8 F2100
M204 S800
;TYPE:Perimeter
;WIDTH:0.419999
G1 F1200
G1 X138.858 Y183.967 E.01527
G1 X139.379 Y184.228 E.01827
G1 X139.838 Y184.584 E.01821
G1 X140.213 Y185.011 E.01782
G1 X140.502 Y185.5 E.01781
;WIDTH:0.457915
G1 X140.712 Y186.029 E.01964
G1 X140.799 Y186.594 E.01973
;WIDTH:0.449453
G1 X140.779 Y187.165 E.01931
;WIDTH:0.442758
G1 X140.654 Y187.722 E.01898
;WIDTH:0.445282
G1 X140.447 Y188.215 E.01789
G1 X140.112 Y188.72 E.02028
;WIDTH:0.440743
G1 X139.709 Y189.124 E.01888
;WIDTH:0.441564
G1 X139.243 Y189.45 E.01885
;WIDTH:0.449465
G1 X138.547 Y189.726 E.02531
G1 X137.88 Y189.835 E.02285
;WIDTH:0.445102
G1 X137.327 Y189.808 E.01852
G1 X136.757 Y189.669 E.01962
;WIDTH:0.441963
G1 X136.237 Y189.433 E.01895
;WIDTH:0.446636
G1 X135.826 Y189.147 E.01681
G1 X135.376 Y188.693 E.02146
;WIDTH:0.443203
G1 X135.062 Y188.216 E.01901
G1 X134.846 Y187.689 E.01896
;WIDTH:0.454917
G1 X134.751 Y187.189 E.01744
G1 X134.707 Y186.737 E.01556
;WIDTH:0.449528
G1 X134.769 Y186.17 E.01928
G1 X134.95 Y185.63 E.01926
;WIDTH:0.419999
G1 X135.216 Y185.128 E.01781
G1 X135.571 Y184.684 E.01782
G1 X136.002 Y184.313 E.01783
G1 X136.458 Y184.045 E.01658
G1 X136.93 Y183.871 E.01577
G1 X137.516 Y183.767 E.01866
G1 X138.058 Y183.771 E.01699
G1 X138.327 Y183.837 E.00868
M204 S1000
G1 X138.327 Y183.837 F10800
G1 X138.308 Y184.211
M204 S800
;TYPE:External perimeter
G1 F1200
G1 X138.762 Y184.331 E.01472
G1 X139.201 Y184.561 E.01554
G1 X139.601 Y184.877 E.01598
G1 X139.946 Y185.283 E.01671
G1 X140.188 Y185.718 E.01561
G1 X140.346 Y186.191 E.01564
G1 X140.41 Y186.733 E.01711
G1 X140.386 Y187.182 E.0141
G1 X140.267 Y187.666 E.01563
G1 X140.06 Y188.119 E.01562
G1 X139.722 Y188.574 E.01777
G1 X139.286 Y188.955 E.01815
G1 X138.989 Y189.146 E.01107
G1 X138.338 Y189.386 E.02175
G1 X137.835 Y189.45 E.0159
G1 X137.313 Y189.415 E.0164
G1 X136.822 Y189.282 E.01595
G1 X136.374 Y189.065 E.01561
G1 X135.975 Y188.767 E.01561
G1 X135.604 Y188.348 E.01755
G1 X135.375 Y187.978 E.01364
G1 X135.194 Y187.505 E.01588
G1 X135.097 Y186.818 E.02175
G1 X135.139 Y186.313 E.01589
G1 X135.287 Y185.801 E.01671
G1 X135.515 Y185.358 E.01562
G1 X135.821 Y184.965 E.01562
G1 X136.302 Y184.573 E.01946
G1 X136.625 Y184.384 E.01173
G1 X137.095 Y184.215 E.01566
G1 X137.592 Y184.137 E.01577
G1 X138.092 Y184.154 E.01569
G1 X138.25 Y184.196 E.00513
M204 S1000
;WIPE_START
G1 F8640
G1 X138.308 Y184.211 E-.01383
G1 X138.762 Y184.331 E-.10843
G1 X139.201 Y184.561 E-.11444
G1 X139.601 Y184.877 E-.11771
G1 X139.946 Y185.283 E-.12302
G1 X140.188 Y185.718 E-.11494
G1 X140.346 Y186.191 E-.11515
G1 X140.393 Y186.589 E-.09248
;WIPE_END
G1 Z.6 F720
G1 X189.354 Y165.294 F10800
G1 Z.2 F720
G1 E.8 F2100
M204 S800
;TYPE:Perimeter
G1 F1200
G1 X189.552 Y165.043 E.01002
G1 X189.971 Y164.677 E.01744
G1 X190.408 Y164.415 E.01598
G1 X190.924 Y164.218 E.01732
G1 X191.46 Y164.122 E.01707
G1 X192.032 Y164.119 E.01793
G1 X192.853 Y164.314 E.02646
G1 X193.384 Y164.582 E.01865
;WIDTH:0.454999
G1 X193.843 Y164.918 E.01949
G1 X194.215 Y165.352 E.01959
;WIDTH:0.442678
G1 X194.506 Y165.842 E.01894
G1 X194.697 Y166.38 E.01898
;WIDTH:0.446007
G1 X194.785 Y166.897 E.01758
G1 X194.772 Y167.513 E.02065
;WIDTH:0.440748
G1 X194.646 Y168.069 E.01886
;WIDTH:0.441504
G1 X194.425 Y168.594 E.01888
;WIDTH:0.455344
G1 X194.127 Y169.018 E.01777
G1 X193.839 Y169.356 E.01523
;WIDTH:0.443033
G1 X193.423 Y169.686 E.01767
;WIDTH:0.440755
G1 X192.981 Y169.925 E.01662
;WIDTH:0.443193
G1 X192.44 Y170.107 E.019
G1 X191.874 Y170.181 E.019
;WIDTH:0.445745
G1 X191.357 Y170.159 E.01733
G1 X190.751 Y170.014 E.02087
;WIDTH:0.440905
G1 X190.232 Y169.78 E.01884
;WIDTH:0.44183
G1 X189.766 Y169.451 E.01892
;WIDTH:0.446661
G1 X189.388 Y169.065 E.01814
G1 X188.957 Y168.324 E.02878
;WIDTH:0.419999
G1 X188.777 Y167.757 E.01865
G1 X188.714 Y167.192 E.01782
G1 X188.758 Y166.625 E.01783
G1 X188.906 Y166.077 E.0178
G1 X189.21 Y165.476 E.02112
G1 X189.317 Y165.341 E.0054
M204 S1000
G1 X189.317 Y165.341 F10800
G1 X189.652 Y165.523
M204 S800
;TYPE:External perimeter
G1 F1200
G1 X189.816 Y165.313 E.00835
G1 X190.19 Y164.985 E.0156
G1 X190.619 Y164.732 E.01562
G1 X191.089 Y164.563 E.01566
G1 X191.592 Y164.485 E.01596
G1 X192.086 Y164.502 E.0155
G1 X192.756 Y164.679 E.02173
G1 X193.205 Y164.914 E.01589
G1 X193.598 Y165.227 E.01575
G1 X193.928 Y165.613 E.01592
G1 X194.183 Y166.066 E.0163
G1 X194.34 Y166.539 E.01563
G1 X194.407 Y167.032 E.0156
G1 X194.363 Y167.601 E.01789
G1 X194.197 Y168.156 E.01816
G1 X194.049 Y168.473 E.01097
G1 X193.626 Y169.023 E.02176
G1 X193.235 Y169.345 E.01588
G1 X192.786 Y169.589 E.01602
G1 X192.295 Y169.743 E.01613
G1 X191.794 Y169.798 E.0158
G1 X191.297 Y169.76 E.01563
G1 X190.816 Y169.63 E.01562
G1 X190.269 Y169.34 E.01941
G1 X189.969 Y169.115 E.01176
G1 X189.627 Y168.741 E.01589
G1 X189.285 Y168.138 E.02174
G1 X189.14 Y167.653 E.01587
G1 X189.09 Y167.122 E.01672
G1 X189.14 Y166.623 E.01572
G1 X189.281 Y166.148 E.01554
G1 X189.509 Y165.706 E.01559
G1 X189.615 Y165.571 E.00538
M204 S1000
;WIPE_START
G1 F8640
G1 X189.652 Y165.523 E-.01399
G1 X189.816 Y165.313 E-.06152
G1 X190.19 Y164.985 E-.11486
G1 X190.619 Y164.732 E-.115
G1 X191.089 Y164.563 E-.11533
G1 X191.592 Y164.485 E-.11753
G1 X192.086 Y164.502 E-.11413
G1 X192.705 Y164.665 E-.14764
;WIPE_END
G1 Z.6 F720
G1 X180.58 Y132.744 F10800
G1 Z.2 F720
G1 E.8 F2100
M204 S800
;TYPE:Perimeter
G1 F1200
G1 X180.526 Y133.11 E.0116
G1 X180.345 Y133.613 E.01676
G1 X180.095 Y134.05 E.01579
G1 X179.756 Y134.456 E.01658
G1 X179.321 Y134.821 E.0178
G1 X178.824 Y135.098 E.01784
G1 X178.285 Y135.278 E.01782
G1 X177.722 Y135.354 E.01781
G1 X177.154 Y135.324 E.01783
G1 X176.602 Y135.189 E.01782
G1 X176.085 Y134.953 E.01782
;WIDTH:0.442428
G1 X175.614 Y134.634 E.0189
G1 X175.219 Y134.223 E.01894
;WIDTH:0.440548
G1 X174.798 Y133.511 E.02735
;WIDTH:0.438567
G1 X174.618 Y132.942 E.01963
;WIDTH:0.443953
G1 X174.551 Y132.376 E.01901
G1 X174.596 Y131.807 E.01903
;WIDTH:0.441228
G1 X174.747 Y131.257 E.01889
;WIDTH:0.43539
G1 X174.996 Y130.744 E.01861
;WIDTH:0.440798
G1 X175.333 Y130.285 E.01884
G1 X175.755 Y129.9 E.0189
;WIDTH:0.435144
G1 X176.238 Y129.599 E.01856
;WIDTH:0.440535
G1 X176.769 Y129.391 E.01885
;WIDTH:0.445052
G1 X177.357 Y129.284 E.01998
G1 X177.901 Y129.291 E.01819
;WIDTH:0.441245
G1 X178.704 Y129.487 E.02738
;WIDTH:0.442147
G1 X178.772 Y129.509 E.00237
G1 X179.237 Y129.756 E.01748
;WIDTH:0.446074
G1 X179.647 Y130.07 E.01731
;WIDTH:0.451872
G1 X180.068 Y130.53 E.0212
G1 X180.345 Y131.03 E.01944
;WIDTH:0.419999
G1 X180.537 Y131.565 E.01782
G1 X180.621 Y132.089 E.01664
G1 X180.592 Y132.659 E.0179
G1 X180.588 Y132.685 E.00082
M204 S1000
G1 X180.588 Y132.685 F10800
G1 X180.21 Y132.692
M204 S800
;TYPE:External perimeter
G1 F1200
G1 X180.19 Y132.914 E.00699
G1 X180.031 Y133.395 E.01588
G1 X179.781 Y133.841 E.01603
G1 X179.454 Y134.227 E.01586
G1 X179.064 Y134.541 E.0157
G1 X178.621 Y134.777 E.01574
G1 X178.137 Y134.926 E.01588
G1 X177.642 Y134.981 E.01562
G1 X177.146 Y134.943 E.0156
G1 X176.571 Y134.767 E.01885
G1 X176.121 Y134.525 E.01602
G1 X175.753 Y134.228 E.01483
G1 X175.476 Y133.924 E.0129
G1 X175.134 Y133.32 E.02176
G1 X174.988 Y132.835 E.01588
G1 X174.938 Y132.336 E.01572
G1 X174.984 Y131.825 E.01609
G1 X175.13 Y131.331 E.01615
G1 X175.358 Y130.888 E.01562
G1 X175.731 Y130.436 E.01837
G1 X176.176 Y130.085 E.01777
G1 X176.468 Y129.914 E.01061
G1 X176.982 Y129.738 E.01703
G1 X177.452 Y129.667 E.0149
G1 X178.044 Y129.713 E.01862
G1 X178.627 Y129.869 E.01892
G1 X179.08 Y130.113 E.01613
G1 X179.469 Y130.432 E.01577
G1 X179.796 Y130.827 E.01608
G1 X180.055 Y131.319 E.01743
G1 X180.213 Y131.897 E.01879
G1 X180.243 Y132.346 E.01411
G1 X180.216 Y132.632 E.00901
M204 S1000
;WIPE_START
G1 F8640
G1 X180.21 Y132.692 E-.01392
G1 X180.19 Y132.914 E-.05147
G1 X180.031 Y133.395 E-.11697
G1 X179.781 Y133.841 E-.11806
G1 X179.454 Y134.227 E-.11681
G1 X179.064 Y134.541 E-.11561
G1 X178.621 Y134.777 E-.1159
G1 X178.137 Y134.926 E-.11693
G1 X177.989 Y134.942 E-.03433
;WIPE_END
G1 Z.6 F720
G1 X96.868 Y135.167 F10800
G1 Z.2 F720
G1 E.8 F2100
M204 S800
;TYPE:Perimeter
G1 F1200
G1 X96.399 Y134.953 E.01616
G1 X95.935 Y134.625 E.01782
G1 X95.541 Y134.216 E.01781
G1 X95.16 Y133.577 E.02333
G1 X95.021 Y133.219 E.01204
G1 X94.921 Y132.835 E.01244
G1 X94.877 Y132.269 E.0178
G1 X94.94 Y131.704 E.01782
G1 X95.108 Y131.16 E.01785
;WIDTH:0.459218
G1 X95.34 Y130.671 E.01874
G1 X95.686 Y130.242 E.01908
;WIDTH:0.440866
G1 X96.067 Y129.898 E.01699
G1 X96.553 Y129.599 E.01888
;WIDTH:0.442461
G1 X97.083 Y129.39 E.01893
G1 X97.672 Y129.286 E.01987
;WIDTH:0.44223
G1 X98.216 Y129.294 E.01806
;WIDTH:0.44773
G1 X98.981 Y129.473 E.02645
G1 X99.552 Y129.754 E.02142
;WIDTH:0.443754
G1 X100 Y130.107 E.01901
;WIDTH:0.441598
G1 X100.378 Y130.534 E.0189
G1 X100.666 Y131.027 E.01893
;WIDTH:0.435761
G1 X100.859 Y131.563 E.01861
;WIDTH:0.44098
G1 X100.952 Y132.125 E.01885
;WIDTH:0.441734
G1 X100.935 Y132.695 E.01891
;WIDTH:0.455423
G1 X100.817 Y133.185 E.01729
G1 X100.669 Y133.619 E.01573
;WIDTH:0.442679
G1 X100.4 Y134.08 E.01774
;WIDTH:0.45697
G1 X100.056 Y134.499 E.01866
G1 X99.635 Y134.821 E.01825
;WIDTH:0.419999
G1 X99.139 Y135.098 E.01781
G1 X98.6 Y135.278 E.01782
G1 X98.036 Y135.354 E.01784
G1 X97.48 Y135.325 E.01746
G1 X96.923 Y135.191 E.01796
M204 S1000
G1 X96.923 Y135.191 F10800
G1 X96.997 Y134.817
M204 S800
;TYPE:External perimeter
G1 F1200
G1 X96.979 Y134.812 E.00059
G1 X96.531 Y134.595 E.01561
G1 X96.132 Y134.297 E.01561
G1 X95.79 Y133.924 E.01587
G1 X95.448 Y133.32 E.02176
G1 X95.303 Y132.835 E.01587
G1 X95.253 Y132.304 E.01672
G1 X95.303 Y131.808 E.01563
G1 X95.444 Y131.331 E.0156
G1 X95.709 Y130.84 E.01749
G1 X95.979 Y130.495 E.01374
G1 X96.373 Y130.155 E.01632
G1 X96.881 Y129.878 E.01814
G1 X97.252 Y129.745 E.01236
G1 X97.752 Y129.667 E.01587
G1 X98.249 Y129.685 E.01559
G1 X98.919 Y129.861 E.02172
G1 X99.369 Y130.096 E.01592
G1 X99.775 Y130.422 E.01633
G1 X100.103 Y130.814 E.01603
G1 X100.346 Y131.248 E.0156
G1 X100.503 Y131.721 E.01563
G1 X100.564 Y132.343 E.0196
G1 X100.541 Y132.72 E.01184
G1 X100.348 Y133.386 E.02174
G1 X100.103 Y133.83 E.0159
G1 X99.774 Y134.222 E.01605
G1 X99.398 Y134.527 E.01518
G1 X98.951 Y134.77 E.01595
G1 X98.452 Y134.926 E.01639
G1 X97.957 Y134.981 E.01562
G1 X97.46 Y134.943 E.01563
G1 X97.055 Y134.833 E.01316
M204 S1000
;WIPE_START
G1 F8640
G1 X96.997 Y134.817 E-.01389
G1 X96.979 Y134.812 E-.00431
G1 X96.531 Y134.595 E-.11494
G1 X96.132 Y134.297 E-.11499
G1 X95.79 Y133.924 E-.11685
G1 X95.448 Y133.32 E-.16027
G1 X95.303 Y132.835 E-.11689
G1 X95.253 Y132.304 E-.12315
G1 X95.268 Y132.155 E-.03471
;WIPE_END
G1 Z.6 F720
G1 X86.246 Y165.404 F10800
G1 Z.2 F720
